X: 773
T: Xuan zhong
%%abc-version 2.0
%%abcx-abcm2ps-target-version 5.9.1 (29 Sep 2008)
%%abc-creator hum2abc beta
%%abcx-conversion-date 2013/10/02 07:52:30
%%abc-edited-by Helmut Schaffrath
%%humdrum-veritas 550911189
%%humdrum-veritas-data 647718290
%%continueall 1
%%barnumbers 0
L: 1/8
M: 2/4
K: A
B B B c [I:setbarnb 1]| 
B A F A | 
B B c A | 
B2z2 | 
E2E F | 
A2B F | 
A> A B F | 
A2z2 | 
A B c e | 
B3c | 
E> F A G | 
F4 | 
F2F G | 
F E D C | 
E2E2 | 
F B G F | 
E E F C | 
E4 |]  



